app/assets/images/icons/map.svg

<svg width="34" height="30" viewBox="0 0 34 30" fill="none" xmlns="http://www.w3.org/2000/svg">
<path fill-rule="evenodd" clip-rule="evenodd" d="M12 3.42339C11.8917 6.16006 12 23.3784 12 23.3784C12.2667 23.3784 12.5333 23.4217 12.79 23.5067L22 26.5767V6.62172C21.7315 6.62165 21.4647 6.57832 21.21 6.49339L12 3.42339ZM11.21 0.17339C11.7228 0.00258742 12.2772 0.00258742 12.79 0.17339L22 3.24339L30.815 0.305057C31.1406 0.196536 31.4874 0.166939 31.8267 0.218703C32.1661 0.270468 32.4882 0.402112 32.7667 0.602792C33.0452 0.803472 33.272 1.06744 33.4285 1.37296C33.5849 1.67848 33.6666 2.0168 33.6667 2.36006V24.4001C33.6666 24.9248 33.5014 25.4363 33.1945 25.8619C32.8876 26.2876 32.4545 26.6059 31.9567 26.7717L22.79 29.8267C22.2767 29.9984 21.7233 29.9984 21.21 29.8267L12 26.7567L3.185 29.6951C2.85935 29.8036 2.51258 29.8332 2.17326 29.7814C1.83393 29.7296 1.51175 29.598 1.23328 29.3973C0.954798 29.1966 0.727984 28.9327 0.57152 28.6271C0.415056 28.3216 0.333419 27.9833 0.333334 27.6401V5.60006C0.333383 5.07529 0.498563 4.56384 0.805471 4.13818C1.11238 3.71251 1.54545 3.39422 2.04333 3.22839L11.21 0.17339Z" fill="#4A2D24"/>
</svg>

<svg xmlns="http://www.w3.org/2000/svg" width="34" height="30" fill="none"><path fill="#4A2D24" fill-rule="evenodd" d="M12 3.423c-.108 2.737 0 19.955 0 19.955q.402 0 .79.129l9.21 3.07V6.622a2.5 2.5 0 0 1-.79-.129zm-.79-3.25a2.5 2.5 0 0 1 1.58 0L22 3.243 30.815.305a2.166 2.166 0 0 1 2.852 2.055V24.4a2.5 2.5 0 0 1-1.71 2.372l-9.167 3.055a2.5 2.5 0 0 1-1.58 0L12 26.757l-8.815 2.938A2.166 2.166 0 0 1 .333 27.64V5.6a2.5 2.5 0 0 1 1.71-2.372z" clip-rule="evenodd"/></svg>
